X:90
T:Gavotte ton simple
R:Gavotte
C:trad
A:Bretagne
O:France
M:6/8
L:1/8
Q:1/4=240
K:C
e2de2d|c2BA3|c2AB2c|B3B3:|
|:e2de2d|c2BA3|c2A BcB|A3A3:||
